X: 29069
T: Neil Taylor's
R: jig
M: 6/8
K: Gmajor
|:D|GAB AGF|GBd g2e|dBG GFG|FAF DEF|
GAB AGF|GBd g2e|dBG FGA|DAF G2:|
|:d|gag gdB|cde dBG|DFA Acc|Aed B2d|
gag gdB|cde dBG|fed cAF|DAF G2:|

